resources/svg/float-right.svg

<svg width="15" height="15" viewBox="0 0 15 15" fill="none" xmlns="http://www.w3.org/2000/svg">
<path d="M9.5 0C8.67157 0 8 0.671573 8 1.5V5.5C8 6.32843 8.67157 7 9.5 7H13.5C14.3284 7 15 6.32843 15 5.5V1.5C15 0.671573 14.3284 0 13.5 0H9.5Z" fill="black"/>
<path d="M0 2H6V1H0V2Z" fill="black"/>
<path d="M0 6H6V5H0V6Z" fill="black"/>
<path d="M0 10H15V9H0V10Z" fill="black"/>
<path d="M0 14H15V13H0V14Z" fill="black"/>
</svg>

<svg viewBox="0 0 15 15" fill="none" xmlns="http://www.w3.org/2000/svg" fill="currentColor"><path d="M9.5 0A1.5 1.5 0 008 1.5v4A1.5 1.5 0 009.5 7h4A1.5 1.5 0 0015 5.5v-4A1.5 1.5 0 0013.5 0h-4zM0 2h6V1H0v1zm0 4h6V5H0v1zm0 4h15V9H0v1zm0 4h15v-1H0v1z" fill="currentColor"/></svg>
